X:220
T: IN DES GARTENS DUNKLER LAUBE
N: E0112A
O: Europa, Mitteleuropa, Deutschland, Taunus, Niederreifenberg
R: erzaehlendes Volks - Lied, Sage, Liebe, Leid, Tod
M: 3/4
L: 1/16
K: Bb
F2E2 | D2F2B4D2D2 | D2F2F4
E2D2 | E2G2G4F3E | D4z4
F2F2 | F2A2c2e2d2c2 | B2F2F4
F2F2 | G4c4A3A | B4z4

@@@ Tune index: 3870
